!!!COM: Palestrina, Giovanni Perluigi da
!!!OPR: Missa Quem dicunt homines
!!!OTL: Kyrie
**kern	**kern	**kern	**kern
*Ibass	*Itenor	*Icalto	*Icant
!Bassus	!Tenor	!Altus	!Cantus
*clefF4	*clefGv2	*clefG2	*clefG2
*k[]	*k[]	*k[]	*k[]
*C:ion	*C:ion	*C:ion	*C:ion
*M4/2	*M4/2	*M4/2	*M4/2
=1	=1	=1	=1
0r	0r	0r	1g
.	.	.	2g
.	.	.	2g
=2	=2	=2	=2
0r	0r	0r	2a
.	.	.	2b
.	.	.	1g
=3	=3	=3	=3
0r	0r	1c	2r
.	.	.	2g
.	.	2c	2.cc
.	.	2c	.
.	.	.	4b
=4	=4	=4	=4
0r	0r	2d	2a
.	.	2e	2g
.	.	1c	2a
.	.	.	4g
.	.	.	4f
=5	=5	=5	=5
0r	0r	2r	2e
.	.	2c	2g
.	.	2.f	2a
.	.	.	2cc
.	.	4e	.
=6	=6	=6	=6
0r	1r	2d	4b
.	.	.	4a
.	.	2c	1cc
.	1G	[1d	.
.	.	.	4b
.	.	.	4a
=7	=7	=7	=7
0r	2G	1d]	4b
.	.	.	4cc
.	2G	.	4dd
.	.	.	4b
.	2A	2r	2cc
.	2B	2d	[2dd
=8	=8	=8	=8
1r	1G	2.g	4dd]
.	.	.	4cc
.	.	.	4b
.	.	4f	4a
1C	2r	4e	4g
.	.	4d	4f
.	2G	4c	4e
.	.	4B	4d
=9	=9	=9	=9
2C	2.c	4A	1e
.	.	4G	.
2C	.	2g	.
.	4B	.	.
2D	2A	2f	2r
2E	2G	[2e	2g
=10	=10	=10	=10
1C	2A	4e]	2.cc
.	.	4d	.
.	2G	2e	.
.	.	.	4b
2r	2F	2f	2a
2C	[2c	4e	2g
.	.	4d	.
=11	=11	=11	=11
2.F	2c]	1c	2.a
.	2A	.	.
4E	.	.	4g
2D	2B	2d	2f
2C	[2c	2G	[2e
=12	=12	=12	=12
2F	2c]	1A	2e]
2F	4B	.	2d
.	4A	.	.
[1E	1G	2B	[1e
.	.	2B	.
=13	=13	=13	=13
0E]	2r	2G	1e]
.	2B	2G	.
.	2G	2.B	2r
.	2G	.	2b
.	.	4c	.
=14	=14	=14	=14
1r	2B	2d	2g
.	2c	2e	2g
2r	1G	2d	1b
2E	.	4g	.
.	.	4f	.
=15	=15	=15	=15
2C	2r	4e	1cc
.	.	4d	.
2C	2c	2.e	.
2.E	2B	.	[1g
.	.	4d	.
.	2e	[2c	.
4F	.	.	.
=16	=16	=16	=16
1G	1d	2c]	1g]
.	.	2B	.
2C	2.c	1c	2r
[2c	.	.	2e
.	4B	.	.
=17	=17	=17	=17
4c]	1A	2r	2c
4B	.	.	.
2.A	.	2e	2c
.	1r	2c	2.e
4G	.	.	.
4A	.	2c	.
8G	.	.	4f
8F	.	.	.
=18	=18	=18	=18
0E	2r	2.e	2.g
.	2B	.	.
.	.	4f	4a
.	2G	2g	4b
.	.	.	4a
.	2G	2e	4b
.	.	.	4cc
=19	=19	=19	=19
0r	2.B	2d	2dd
.	.	1g	2b
.	4c	.	.
.	1d	.	1a
.	.	2f#	.
=20	=20	=20	=20
1E	2G	2g	1g
.	2G	2.e	.
2C	2A	.	2r
.	.	4d	.
2C	[2G	2c	[2e
=21	=21	=21	=21
2.E	2G]	2B	2e]
.	1c	1G	2e
4F	.	.	.
1G	.	.	1d
.	2B	[2g	.
=22	=22	=22	=22
2C	1c	4g]	2.g
.	.	4f	.
2.c	.	4e	.
.	.	4d	4f
.	2r	[1g	4e
4B	.	.	4d
2B	2G	.	[2dd
=23	=23	=23	=23
1A	2c	2g]	4dd]
.	.	.	4cc
.	2c	2f#	1cc
1G	1d	1g	.
.	.	.	2b
=24	=24	=24	=24
0C	0c	0e	0cc
=25	=25	=25	=25
0r	0r	1.f	0r
.	.	2f	.
=26	=26	=26	=26
0r	0r	2e	1r
.	.	2d	.
.	.	2.f	[1cc
.	.	4e	.
=27	=27	=27	=27
0r	0r	2c	2cc]
.	.	2.e	2cc
.	.	.	2b
.	.	4d	.
.	.	[2f	2a
=28	=28	=28	=28
1.c	0r	2f]	2.cc
.	.	4e	.
.	.	4d	4b
.	.	1e	2g
2c	.	.	2a
=29	=29	=29	=29
2B	0r	2d	2b
2A	.	2c	2cc
2.c	.	2.e	2g
.	.	.	2cc
4B	.	4f	.
=30	=30	=30	=30
2G	1r	2g	2b
2A	.	4f	2.a
.	.	4e	.
2B	2r	2d	.
.	.	.	4g
2c	[2c	[2e	[2g
=31	=31	=31	=31
1A	2c]	2e]	2g]
.	2c	4d	2f#
.	.	4c	.
2G	2B	2d	2g
[2F	2A	[2f	[2a
=32	=32	=32	=32
4F]	2.c	2f]	2a]
4E	.	.	.
4C	.	1e	1g
4D	4B	.	.
2E	2G	.	.
2F	2A	4d	[2f
.	.	4c	.
=33	=33	=33	=33
2D	2B	2d	2f]
2C	2c	1g	2e
1D	1A	.	1d
.	.	2f#	.
=34	=34	=34	=34
2.E	2G	2g	2r
.	1c	1e	1g
4F	.	.	.
1G	.	.	.
.	2B	[2d	2g
=35	=35	=35	=35
1A	2c	4d]	2f
.	.	4c	.
.	2c	1c	2e
1G	1d	.	[1g
.	.	2B	.
=36	=36	=36	=36
2r	0e	1c	2g]
1c	.	.	4c
.	.	.	4d
.	.	[1g	4e
.	.	.	4f
2c	.	.	4g
.	.	.	4a
=37	=37	=37	=37
2B	0r	2g]	4b
.	.	.	4cc
2B	.	2g	4dd
.	.	.	4b
2A	.	2f	2cc
2B	.	2d	2dd
=38	=38	=38	=38
1c	2r	2.e	1g
.	1c	.	.
.	.	4f	.
1C	.	2g	2r
.	2c	[2e	[2g
=39	=39	=39	=39
1E	2B	4e]	2g]
.	.	4d	.
.	2G	4B	2g
.	.	4c	.
1D	2A	1d	2f
.	2B	.	2d
=40	=40	=40	=40
1C	2.c	2G	1e
.	.	1g	.
.	8B	.	.
.	8A	.	.
1r	2B	.	2r
.	2c	2g	[2cc
=41	=41	=41	=41
0r	1A	2f	2cc]
.	.	2e	2cc
.	2.G	2.g	1b
.	4A	4f	.
=42	=42	=42	=42
1r	2B	2d	1g
.	2c	2e	.
2r	1A	2f	1a
[2c	.	[2e	.
=43	=43	=43	=43
2c]	0r	2e]	1g
2c	.	4d	.
.	.	4c	.
2B	.	2d	2r
2A	.	2f	[2cc
=44	=44	=44	=44
2.c	1r	1.e	2cc]
.	.	.	2cc
8B	.	.	.
8A	.	.	.
2G	2r	.	2b
2F	[2c	2f	2a
=45	=45	=45	=45
1A	2c]	1.e	2.cc
.	2c	.	.
.	.	.	4b
2E	2B	.	2g
[2F	2A	4d	[2a
.	.	4c	.
=46	=46	=46	=46
4F]	2.c	2f	4a]
4E	.	.	4b
4C	.	1e	2cc
4D	4B	.	.
2E	2G	.	2b
2F	2A	2c	[2a
=47	=47	=47	=47
2E	2B	1e	4a]
.	.	.	4g
2C	2c	.	1g
1D	1A	1d	.
.	.	.	2f#
=48	=48	=48	=48
0G	0B	0d	0g
=49	=49	=49	=49
0r	0r	1d	0r
.	.	2d	.
.	.	2c	.
=50	=50	=50	=50
1G	0r	2B	0r
.	.	2G	.
2G	.	1d	.
2F	.	.	.
=51	=51	=51	=51
2E	1r	1.c	0r
2C	.	.	.
[1G	1d	.	.
.	.	4B	.
.	.	4A	.
=52	=52	=52	=52
2G]	2d	2B	1g
2E	2c	2G	.
1D	2B	1d	2g
.	2A	.	2f
=53	=53	=53	=53
2.C	1.c	0G	2e
.	.	.	2c
4D	.	.	.
4E	.	.	[1g
4F	.	.	.
4G	2B	.	.
4A	.	.	.
=54	=54	=54	=54
2B	2G	1r	2g]
1c	2A	.	2e
.	2F	2r	1d
2B	2G	2g	.
=55	=55	=55	=55
1c	1A	2g	1c
.	.	2f	.
1C	2G	2e	2.g
.	[2E	2c	.
.	.	.	4a
=56	=56	=56	=56
0r	4E]	1.g	4b
.	4F	.	4a
.	4G	.	4b
.	4A	.	4cc
.	2B	.	2dd
.	2c	2e	[2cc
=57	=57	=57	=57
1r	1G	1d	2cc]
.	.	.	2b
2r	2.A	2.c	2.cc
2c	.	.	.
.	4B	4d	8b
.	.	.	8a
=58	=58	=58	=58
2c	2c	4e	1g
.	.	4f	.
2B	2d	2.g	.
2A	1c	.	1a
.	.	4f	.
2F	.	[2f	.
=59	=59	=59	=59
1.c	0r	2f]	1g
.	.	4e	.
.	.	4d	.
.	.	2e	2r
2A	.	2c	2cc
=60	=60	=60	=60
1G	2r	1d	2cc
.	2d	.	2b
1F	2d	2.f	1a
.	2c	.	.
.	.	4e	.
=61	=61	=61	=61
0G	2B	4d	1.dd
.	.	4c	.
.	2G	4B	.
.	.	4A	.
.	[1d	2G	.
.	.	2g	2b
=62	=62	=62	=62
0r	2d]	2f	2a
.	2B	2d	2.dd
.	1A	4f	.
.	.	4e	4cc
.	.	4e	[2cc
.	.	8d	.
.	.	8c	.
=63	=63	=63	=63
2r	1G	1d	2cc]
2G	.	.	2b
2.A	1c	2c	1cc
.	.	[2f	.
4B	.	.	.
=64	=64	=64	=64
1c	1r	2f]	2r
.	.	4e	2g
.	.	4d	.
2A	2.c	2e	2.a
[2c	.	[2A	.
.	4d	.	4b
=65	=65	=65	=65
4c]	2e	2A]	1cc
4B	.	.	.
4A	2c	1a	.
4G	.	.	.
2F	2.d	.	2a
2G	.	[2g	2b
.	4e	.	.
=66	=66	=66	=66
1A	1c	2g]	1.cc
.	.	2f#	.
1G	2d	1g	.
.	2G	.	2b
=67	=67	=67	=67
2F#	2A	2r	2a
2G	2B	2d	1g
1C	[1c	2.e	.
.	.	.	2c
.	.	4f	.
=68	=68	=68	=68
[0C	1c]	1g	2.e
.	.	.	4f
.	1c	2e	1g
.	.	[2g	.
=69	=69	=69	=69
1C]	2r	4g]	1.e
.	.	4f	.
.	2G	4e	.
.	.	4d	.
1r	2A	2c	.
.	2B	2d	[2g
=70	=70	=70	=70
0r	1c	2e	4g]
.	.	.	4f
.	.	2g	4e
.	.	.	4d
.	2A	2f	1c
.	[2c	2e	.
=71	=71	=71	=71
1G	2c]	1d	2.g
.	2B	.	.
.	.	.	4f
2.A	2.c	1r	2e
.	.	.	2a
4B	4d	.	.
=72	=72	=72	=72
1c	1e	2r	2g
.	.	2c	2g
2A	2c	2.e	2.a
[2c	2A	.	.
.	.	4f	4b
=73	=73	=73	=73
4c]	2e	2g	1cc
4B	.	.	.
4A	1c	1a	.
4G	.	.	.
2F	.	.	2a
2G	2B	[2g	[2dd
=74	=74	=74	=74
1A	1c	2g]	4dd]
.	.	.	4cc
.	.	2f#	1cc
1G	1d	1g	.
.	.	.	2b
=75	=75	=75	=75
0C	0c	0e	0cc
==	==	==	==
*-	*-	*-	*-
!!!CDT: 1525/^1526/-1594/2/2
!!!OCY: Italia
!!!AGN: Mass (Parody)
!!!AST: renaissance, vocal
!!!ASW: Motet 1532 (Richafort)
!!!PWK: Masses, Book 8
!!!RNB: Cadence finals: G
!!!YOR: Le Opere Complete, v. 24, p. 1
!!!YOO: Rome, Italy: Fratelli Scalera
!!!END: 1992//
!!!EED: John Miller
!!!YEC: Copyright 2000, John Miller
!!!YEN: United States of America
!!!YEM: Rights to all derivative electronic formats reserved.
!!!YEM: Refer to licensing agreement for further details.
!!!YEM: This file must be accompanied by the licensing agreement.
!!!YEM: A copy of the licensing agreement may be found at http://www.music-cog.ohio-state.edu/HumdrumDatabases/Palestrina/license.txt
!!!EMD: converted to Humdrum by Bret Aarden
